X: 39893
T: Thistle Schottische, The
R: barndance
M: 4/4
K: Gmajor
(3Bc^c|dG (3BAG EG_EG|D6 (3Bc^c|dG (3BAG EFG^G|A6 (3BAG|
AGB,C DG (3A^GA|AA,BB, c2 (3Bc^c|d^cdB AGEF|G6 (3Bc^c|
dG (3BAG EG_EG|D6 (3Bc^c|dG (3BAG EFG^G|Afe^c d2 (3BAG|
AGB,C D2 (3GFG|AA,BB, c2 (3Bc^c|d^cdB AGEF|G4- GD||
|:B,C|D4- DB,CB,|E6 FG|(3ABA ^GA dAGA|B6 (3GFG|
AGB,C DG (3GFG|AA,BB, c2 (3Bc^c|d^cdB AGEF|G6:|
Bc|(3ded (3BdB GBdB|(3cec (3AcA E2 AG|(3FAc fe (3ded (3cBA|(3GBA (3GFE D2 Bc|
(3ded (3BdB GBdB|(3cec (3AcA E2 AG|(3FAc fe (3ded (3cBA|G2 B2 G2- GB|
(3dgd (3BdB (3GBd (3gdB|(3cec (3AcA E2 AG|(3FAc fe (3ded (3cBA|(3GBA (3GFE (3DEF (3GAB|
(3dgd (3BdB (3GBd (3gdB|(3cec (3AcA (3EAc (3ecA|(3FAc fe (3ded (3cBA|(3GBd (3gdB G2||

